tools/download-figma-icons/icons/action/arrow-up.svg

<svg width="24" height="24" viewBox="0 0 24 24" fill="none" xmlns="http://www.w3.org/2000/svg">
<path fill-rule="evenodd" clip-rule="evenodd" d="M12.0431 2.42823C12.0416 2.42823 12.0401 2.42823 12.0379 2.42823C12.0371 2.42823 12.0364 2.42748 12.0356 2.42748C11.8924 2.42823 11.7559 2.45823 11.6291 2.50698C11.6231 2.50923 11.6179 2.51073 11.6119 2.51299C11.4716 2.56998 11.3456 2.65473 11.2414 2.75973L5.40262 8.59848C4.96312 9.03798 4.96312 9.74973 5.40262 10.1892C5.84137 10.6287 6.55387 10.6287 6.99337 10.1892L10.9234 6.25923L10.9654 19.4885C10.9676 20.1095 11.4731 20.612 12.0941 20.6097C12.7151 20.6082 13.2154 20.1042 13.2154 19.4847V19.481L13.1734 6.27723L17.1889 10.2927C17.6284 10.7322 18.3401 10.7322 18.7796 10.2927C18.9994 10.073 19.1096 9.78573 19.1096 9.49773C19.1096 9.20973 18.9994 8.92173 18.7796 8.70198L12.8351 2.75673L12.8336 2.75598C12.7294 2.65248 12.6049 2.56923 12.4661 2.51223C12.4616 2.50998 12.4564 2.50923 12.4511 2.50773C12.3244 2.45749 12.1871 2.42898 12.0431 2.42823Z" fill="black"/>
</svg>

<svg width="24" height="24" viewBox="0 0 24 24" fill="none" xmlns="http://www.w3.org/2000/svg"><path fill-rule="evenodd" clip-rule="evenodd" d="M12.043 2.428h-.007c-.144 0-.28.03-.407.079l-.017.006c-.14.057-.266.142-.37.247l-5.84 5.838a1.124 1.124 0 1 0 1.591 1.591l3.93-3.93.042 13.23a1.125 1.125 0 0 0 2.25-.004v-.004l-.042-13.204 4.016 4.016a1.124 1.124 0 1 0 1.59-1.591l-5.944-5.945-.001-.001a1.13 1.13 0 0 0-.368-.244l-.015-.004a1.12 1.12 0 0 0-.408-.08Z" fill="currentColor"/></svg>
